dist/img/logo.svg

<?xml version="1.0" encoding="UTF-8"?>
<svg viewBox="0 0 193 45" xmlns="http://www.w3.org/2000/svg">
<path d="m86.357 30.918 6.3851-13.646 4.978 10.647h6.756l-9.0629-19.432-0.0357-0.00706h-5.278l-13.049 27.891 30.554-0.0071 2.557-5.4471h-23.805z" fill="#231F20"/>
<path d="m69.161 8.4868h-6.9207l-2.5711 5.4682h9.0704l0.0286 0.0141-10.485 22.409 6.7421-0.0071 10.485-22.416h7.2421l2.5783-5.4682h-16.17z" fill="#231F20"/>
<path d="m35.186 19.698h21.99l-2.564 5.4682h-21.983l2.5569-5.4682z" fill="#231F20"/>
<path d="m40.248 8.4868h21.99l-2.5712 5.4682h-21.976l2.5569-5.4682z" fill="#231F20"/>
<path d="m20.83 30.924 10.528-22.437h-24.676l2.5569 5.4612h12.82l-10.506 22.43 37.667 7e-3 2.5712-5.4682-30.961 0.0071z" fill="#231F20"/>
<path d="m114.19 26.635c-1.183-0.3049-2.299-0.8215-3.293-1.524l1.429-3.1892c0.867 0.6232 1.832 1.1001 2.857 1.4111 1.055 0.3454 2.159 0.5217 3.271 0.5222 0.931 0.0615 1.862-0.121 2.699-0.5292 0.26-0.1371 0.477-0.3402 0.631-0.5884 0.153-0.2481 0.236-0.5322 0.241-0.8228 3e-3 -0.2078-0.041-0.4136-0.13-0.6019-0.09-0.1882-0.221-0.354-0.384-0.4846-0.392-0.3146-0.841-0.5539-1.322-0.7056-0.543-0.1694-1.264-0.3599-2.185-0.5715-1.171-0.2634-2.326-0.5956-3.457-0.9949-0.896-0.3254-1.692-0.8719-2.314-1.5875-0.675-0.8255-1.019-1.8682-0.964-2.9282-9e-3 -1.0265 0.294-2.032 0.871-2.8858 0.657-0.9195 1.57-1.6304 2.628-2.0462 1.362-0.5387 2.82-0.79566 4.286-0.75496 1.165-0.00377 2.326 0.13607 3.456 0.41629 1.046 0.24311 2.047 0.64792 2.964 1.1995l-1.321 3.2103c-1.556-0.9025-3.323-1.3889-5.128-1.4111-0.923-0.0653-1.845 0.1331-2.657 0.5715-0.263 0.1578-0.481 0.3806-0.631 0.6465-0.151 0.266-0.228 0.5659-0.226 0.8705-3e-3 0.3069 0.09 0.6072 0.267 0.8598 0.176 0.2526 0.427 0.4452 0.719 0.5513 0.976 0.3977 1.991 0.6979 3.028 0.8961 1.174 0.2635 2.33 0.5957 3.464 0.9949 0.89 0.3269 1.684 0.8648 2.314 1.5663 0.677 0.8108 1.021 1.8433 0.964 2.8929 7e-3 1.0216-0.302 2.0209-0.885 2.8646-0.668 0.9207-1.591 1.6313-2.657 2.0462-1.362 0.5376-2.82 0.7945-4.286 0.755-1.44-0.0136-2.871-0.2323-4.249-0.6492z" fill="#231F20"/>
<path d="m132.97 26.027c-1.507-0.7967-2.766-1.9824-3.644-3.4306-0.878-1.4483-1.342-3.1047-1.342-4.7929 0-1.6881 0.464-3.3446 1.342-4.7928s2.137-2.6339 3.644-3.4306c1.607-0.80907 3.385-1.2309 5.189-1.2309 1.803 0 3.581 0.42179 5.188 1.2309 1.494 0.78343 2.745 1.9512 3.621 3.3797 0.866 1.4697 1.322 3.1398 1.322 4.8402 0 1.7005-0.456 3.3705-1.322 4.8403-0.876 1.4306-2.127 2.6008-3.621 3.3867-1.609 0.8025-3.386 1.2206-5.188 1.2206-1.803 0-3.58-0.4181-5.189-1.2206zm8.156-3.1257c0.873-0.4869 1.59-1.2055 2.071-2.0744 0.498-0.9333 0.758-1.9722 0.758-3.0269s-0.26-2.0936-0.758-3.0269c-0.481-0.8689-1.198-1.5874-2.071-2.0744-0.907-0.491-1.925-0.7483-2.96-0.7483s-2.053 0.2573-2.961 0.7483c-0.872 0.487-1.59 1.2055-2.071 2.0744-0.497 0.9333-0.757 1.9722-0.757 3.0269s0.26 2.0936 0.757 3.0269c0.481 0.8689 1.199 1.5875 2.071 2.0744 0.908 0.491 1.926 0.7484 2.961 0.7484s2.053-0.2574 2.96-0.7484z" fill="#231F20"/>
<path d="m155.27 12.029v4.8261h8.57v3.4009h-8.57v6.6535h-4.286v-18.274h13.978v3.3938h-9.692z" fill="#231F20"/>
<path d="m172.36 12.078h-5.921v-3.4432h16.127v3.4432h-5.921v14.817h-4.285v-14.817z" fill="#231F20"/>
<path d="m110.16 30.925-2.55 5.4329h18.241l2.493-5.4329h-18.184z" fill="#00ABEA"/>
<path d="m128.34 30.925-2.492 5.4329h17.448l2.492-5.4329h-17.448z" fill="#008ECB"/>
<path d="m145.79 30.925-2.493 5.4329h17.448l2.493-5.4329h-17.448z" fill="#E26655"/>
<path d="m163.24 30.925-2.493 5.4329h17.448l2.493-5.4329h-17.448z" fill="#FCCB26"/>
</svg>

<svg xmlns="http://www.w3.org/2000/svg" width="193" height="45" viewBox="0 0 193 45" fill="none">
  <path d="M86.3569 30.9177L92.742 17.2719L97.72 27.9191H104.476L95.4131 8.48753L95.3774 8.48047H90.0994L77.0508 36.3719L107.605 36.3648L110.162 30.9177H86.3569Z" fill="#231F20"/>
  <path d="M69.1606 8.48682H62.2399L59.6688 13.955H68.7392L68.7678 13.9691L58.2832 36.3782L65.0253 36.3711L75.5099 13.955H82.752L85.3303 8.48682H69.1606Z" fill="#231F20"/>
  <path d="M35.1858 19.6982H57.1763L54.6123 25.1664H32.6289L35.1858 19.6982Z" fill="#231F20"/>
  <path d="M40.2483 8.48682H62.2388L59.6676 13.955H37.6914L40.2483 8.48682Z" fill="#231F20"/>
  <path d="M20.8301 30.9241L31.3576 8.48682H6.68164L9.23851 13.948H22.0586L11.5525 36.3782L49.2199 36.3852L51.7911 30.917L20.8301 30.9241Z" fill="#231F20"/>
  <path d="M114.191 26.6352C113.008 26.3303 111.892 25.8137 110.898 25.1112L112.327 21.922C113.194 22.5452 114.159 23.0221 115.184 23.3331C116.239 23.6785 117.343 23.8548 118.455 23.8553C119.386 23.9168 120.317 23.7343 121.154 23.3261C121.414 23.189 121.631 22.9859 121.785 22.7377C121.938 22.4896 122.021 22.2055 122.026 21.9149C122.029 21.7071 121.985 21.5013 121.896 21.313C121.806 21.1248 121.675 20.959 121.512 20.8284C121.12 20.5138 120.671 20.2745 120.19 20.1228C119.647 19.9534 118.926 19.7629 118.005 19.5513C116.834 19.2879 115.679 18.9557 114.548 18.5564C113.652 18.231 112.856 17.6845 112.234 16.9689C111.559 16.1434 111.215 15.1007 111.27 14.0407C111.261 13.0142 111.564 12.0087 112.141 11.1549C112.798 10.2354 113.711 9.52448 114.769 9.10875C116.131 8.57005 117.589 8.31309 119.055 8.35379C120.22 8.35002 121.381 8.48986 122.511 8.77008C123.557 9.01319 124.558 9.418 125.475 9.96956L124.154 13.1799C122.598 12.2774 120.831 11.791 119.026 11.7688C118.103 11.7035 117.181 11.9019 116.369 12.3403C116.106 12.4981 115.888 12.7209 115.738 12.9868C115.587 13.2528 115.51 13.5527 115.512 13.8573C115.509 14.1642 115.602 14.4645 115.779 14.7171C115.955 14.9697 116.206 15.1623 116.498 15.2684C117.474 15.6661 118.489 15.9663 119.526 16.1645C120.7 16.428 121.856 16.7602 122.99 17.1594C123.88 17.4863 124.674 18.0242 125.304 18.7257C125.981 19.5365 126.325 20.569 126.268 21.6186C126.275 22.6402 125.966 23.6395 125.383 24.4832C124.715 25.4039 123.792 26.1145 122.726 26.5294C121.364 27.067 119.906 27.3239 118.44 27.2844C117 27.2708 115.569 27.0521 114.191 26.6352Z" fill="#231F20"/>
  <path d="M132.974 26.0274C131.467 25.2307 130.208 24.045 129.33 22.5968C128.452 21.1485 127.988 19.4921 127.988 17.8039C127.988 16.1158 128.452 14.4593 129.33 13.0111C130.208 11.5629 131.467 10.3772 132.974 9.58047C134.581 8.7714 136.359 8.34961 138.163 8.34961C139.966 8.34961 141.744 8.7714 143.351 9.58047C144.845 10.3639 146.096 11.5317 146.972 12.9602C147.838 14.4299 148.294 16.1 148.294 17.8004C148.294 19.5009 147.838 21.1709 146.972 22.6407C146.096 24.0713 144.845 25.2415 143.351 26.0274C141.742 26.8299 139.965 27.248 138.163 27.248C136.36 27.248 134.583 26.8299 132.974 26.0274ZM141.13 22.9017C142.003 22.4148 142.72 21.6962 143.201 20.8273C143.699 19.894 143.959 18.8551 143.959 17.8004C143.959 16.7457 143.699 15.7068 143.201 14.7735C142.72 13.9046 142.003 13.1861 141.13 12.6991C140.223 12.2081 139.205 11.9508 138.17 11.9508C137.135 11.9508 136.117 12.2081 135.209 12.6991C134.337 13.1861 133.619 13.9046 133.138 14.7735C132.641 15.7068 132.381 16.7457 132.381 17.8004C132.381 18.8551 132.641 19.894 133.138 20.8273C133.619 21.6962 134.337 22.4148 135.209 22.9017C136.117 23.3927 137.135 23.6501 138.17 23.6501C139.205 23.6501 140.223 23.3927 141.13 22.9017Z" fill="#231F20"/>
  <path d="M155.266 12.0291V16.8552H163.836V20.2561H155.266V26.9096H150.98V8.63525H164.958V12.0291H155.266Z" fill="#231F20"/>
  <path d="M172.362 12.0785H166.441V8.63525H182.568V12.0785H176.647V26.8955H172.362V12.0785Z" fill="#231F20"/>
  <path d="M110.155 30.9248L107.605 36.3577H125.846L128.339 30.9248H110.155Z" fill="#00ABEA"/>
  <path d="M128.34 30.9248L125.848 36.3577H143.296L145.788 30.9248H128.34Z" fill="#008ECB"/>
  <path d="M145.788 30.9248L143.295 36.3577H160.743L163.236 30.9248H145.788Z" fill="#E26655"/>
  <path d="M163.235 30.9248L160.742 36.3577H178.19L180.683 30.9248H163.235Z" fill="#FCCB26"/>
</svg>
